X: 14409
T: Galway Dancer, The
R: jig
M: 6/8
K: Dmajor
|:A2 d BAF|AFE EFE|D2 D AFA|BAA AFG|
A2 d BAF|AFE EFE|D2 D BAF|1 EFE DFG:|2 EFE D2 E||
FDD ADD|ABd BAF|ABd BAF|AFE E2E|
FDD ADD|ABd BAF|ABd BAF|EFE D2E|
FDD ADD|ABd BAF|ABd BAF|AFE E2E|
FDD ADD|ABd BAF|ABd fdB|AFE D3||

